Breeze Round Dark/devices/22/media-optical-mixed-cd.svg

<svg xmlns="http://www.w3.org/2000/svg" viewBox="0 0 22 22">
  <defs id="defs3051">
    <style type="text/css" id="current-color-scheme">.ColorScheme-Text {color:#eff0f1;}</style>
  </defs>
    <path
       style="fill:currentColor;fill-opacity:1;stroke:none" 
       d="M 11,3 C 6.581722,3 3,6.581722 3,11 h 1 c 0,-3.8659932 3.1340068,-7 7,-7 3.865993,0 7,3.1340068 7,7 h 1 C 19,6.581722 15.418278,3 11,3 Z m 0,2 C 7.676,5 5,7.676 5,11 H 8 C 8,9.338 9.338,8 11,8 Z m 0,4 C 9.8954305,9 9,9.8954305 9,11 h 1 c 0,-0.552285 0.447715,-1 1,-1 0.552285,0 1,0.447715 1,1 h 1 C 13,9.8954305 12.104569,9 11,9 Z m 5,2 v 4.277344 C 15.704935,15.106144 15.367047,15 15,15 c -1.108,0 -2,0.892 -2,2 0,1.108 0.892,2 2,2 1.108,0 2,-0.892 2,-2 v -4 h 1 L 17,11 Z M 4,13 v 5 c 0,0 0,1 1,1 1,0 2,0 2,0 l 2,-2 v -4 c 0,0 0,-1 -1,-1 -1,0 -2,0 -3,0 -1,0 -1,1 -1,1 z m 1,0 h 3 v 4 H 7 v 1 H 5 Z"
       id="rect4119" 
       class="ColorScheme-Text"/>
</svg>

<svg xmlns="http://www.w3.org/2000/svg" viewBox="0 0 22 22 ">
  <defs id="defs3051">
    <style type="text/css" id="current-color-scheme">
      .ColorScheme-Text {
        color:#eff0f1;
      }
      </style>
  </defs>
    <path
       style="fill:currentColor;fill-opacity:1;stroke:none" 
       d="M 11 3 A 8 8 0 0 0 3 11 L 4 11 A 7 7 0 0 1 11 4 A 7 7 0 0 1 18 11 L 19 11 A 8 8 0 0 0 11 3 z M 11 5 C 7.676 5 5 7.676 5 11 L 8 11 C 8 9.338 9.338 8 11 8 L 11 5 z M 11 9 A 2 2 0 0 0 9 11 L 10 11 A 1 1 0 0 1 11 10 A 1 1 0 0 1 12 11 L 13 11 A 2 2 0 0 0 11 9 z M 16 11 L 16 15.277344 C 15.704935 15.106144 15.367047 15 15 15 C 13.892 15 13 15.892 13 17 C 13 18.108 13.892 19 15 19 C 16.108 19 17 18.108 17 17 L 17 13 L 18 13 L 17 11 L 16 11 z M 4 12 L 4 19 L 7 19 L 9 17 L 9 12 L 4 12 z M 5 13 L 8 13 L 8 17 L 7 17 L 7 18 L 5 18 L 5 13 z "
       id="rect4119" 
       class="ColorScheme-Text"/>
</svg>
